X: 4
T: Off In The Morning
Z: Thady Quill
S: https://thesession.org/tunes/1737#setting29741
R: reel
M: 4/4
L: 1/8
K: Gmaj
||: D2 | G3B dBB2 | gBB2 dBB2 | cedc BAGB | Add^c dcBA |
| G3B dBB2 | gBB2 dBB2 | cedc BAGB | AGFA G2 :||
||: G2g2 f2e2 | d2Bd gdBG | (3FED AD BDAD | FDFA cAFA |
| G2g2 f2e2 | (3ded Bd gdBG | cedc BAGB | AGFA G4 :||
